X:1
T:Blue Danube Waltz - String Quartet
T:arr. Andrea Motas
T:Johann Strauss II
T:Blue Danube Waltz - String Quartet
C:arr. Andrea Motas
Z:Johann Strauss II
%%score 1 2 3 4
L:1/8
Q:1/4=180
M:3/4
K:D
V:1 treble nm="Violin" snm="Vln."
V:2 treble nm="Violin" snm="Vln."
V:3 alto nm="Viola" snm="Vla."
V:4 bass nm="Violoncello" snm="Vc."
V:1
 z2{B} (A^G) A2 | z2{c} (B^A) B2 | z2{d} (cB) c2 | .d2 .e2 .f2 | z2{f} (e^d) e2 | z2{g} (f^e) f2 | %6
 z2{g} (f^e) f2 | g2 a2 b2 | z2 (ga bA) | g6- | g2 (ga bA) | f6- | f2 (fg aA) | e z g z A z | %14
 d z g z A z | c z g z A z | B z e z G z | A z d z F z | G z c z E z | z6 | z6 | z2 z2 D2 || %22
 (D2 F2 A2) ||S A2 z2{A} !open!a2 | !open!a2 z2{A} f2 | f2 z2 D2 | (D2 F2 A2) | %27
 [GA]2 z2{A} !open!a2 | !open!a2 z2{A} g2 | g2 z2 C2 | (C2 E2 B2) | B2 z2{c} b2 | b2 z2{c} g2 | %33
 g2 z2 C2 | (C2 E2 B2) | B2 z2{d} b2 | b2 z2{d} f2 | f2 z2 D2 | (D2 F2 A2) | d2 z2{d} d'2 | %40
 d'2 z2{d} a2 | a2 z2 D2 | (D2 F2 A2) | d2 z2{d} d'2 | d'2 z2{d} b2 | b2 z2 e2 | (e2 g2 b z) | %47
 !>!b6- | b2 ^g2 a2 | !>!f'6- | f'2 d'2 f2 | (f4 e2 | (b4) a2 | d2) z d d2 |: z2 d' z c' z | %55
 c'2 b z b z | z2 b z ^a z | ^a2 b z b z | z2 e z e z | f4 e z | z2 e z e z | b4 a z | %62
 z2 d' z c' z | c'2 b z b z | z2 b z c' z | e'2 d' z d' z | z2 ^g2 b2 | b4 a2 | ^g3 f dB | %69
 ff f z e z | A z z4!dacoda! :| Ta6- | a6- | a6 | (D2 F2 A2)!D.S.! |:O G,A, G,A, G,A, | %76
 G,A, G,A, G,A, | G,A, G,A, G,A, | G,A, G,A, G,A, | DE DE DE | DE DE DE | DE DE DE | DE DE DE | %83
 G,A, G,A, G,A, | G,A, G,A, G,A, | G,A, G,A, G,A, | G,A, G,A, G, z | (d2 e2 f2) | (a4 g2) | %89
 ff f2 e2 |1 d2 z4 :|2 d2 z4 |] %92
V:2
 (C3 E3) | (D3 F3) | (E3 G3) | (F3 A3) | (G3 A3) | (F3 A3) | (F3 A3) | [A,G]2 z2 z2 | z6 | %9
 z2 [A,G]2 [A,G]2 | [A,G]2 z2 z2 | z2 [A,F]2 [A,F]2 | [A,F]2 z2 z2 | G6- | G6- | G6 | B6 | A6 | %18
 G6 | z6 | z6 | z2 z2 z2 || z6 || z2 z2{A} f2 | f2 z2{A} d2 | d2 z2 z2 | z6 | z2 z2{A} f2 | %28
 f2 z2{A} c2 | c2 z2 z2 | z6 | z2 z2{c} g2 | g2 z2{A} c2 | c2 z2 z2 | z6 | z2 z2{A} f2 | %36
 f2 z2{A} d2 | d2 z2 z2 | z6 | z2 z2{d} a2 | a2 z2{d} f2 | f2 z2 z2 | z6 | z2 z2{d} b2 | %44
 b2 z2{d} g2 | g2 z2 E2 | (E2 G2 B z) | !>!B6- | B2 ^G2 A2 | !>!a6- | a2 d2 f2 | (B4 E2 | (c4) E2 | %53
 [A,F]2) z [A,F] [A,F]2 |: z2 f z e z | e2 d z d z | z2 d z c z | c2 d z d z | [DB]2 z4 | z6 | %60
 e/4f/4e3/2 z4 | z6 | e/4f/4e3/2 f z e z | e2 d z d z | z2 B z _B z | c2 B z B z | z2 ^G2 B2 | %67
 B4 A2 | ^G3 F DB, | FF F z E z | A, z z4 :| G6 | E6 | G6 | z6 |: z2 [A,E] z [A,E] z | %76
 z2 [A,E] z [A,E] z | z2 [A,E] z [A,E] z | z2 [A,E] z [A,E] z | z2 [A,F] z [A,F] z | %80
 z2 [A,F] z [A,F] z | z2 [A,F] z [A,F] z | z2 [A,F] z [A,F] z | z2 [A,E] z [A,E] z | %84
 z2 [A,E] z [A,E] z | z2 [A,E] z [A,E] z | z2 [A,E] z [A,E] z | (D2 E2 F2) | (A4 G2) | AA A2 G2 |1 %90
 F2 z4 :|2 F2 z4 |] %92
V:3
 A,2 A,2 A,2 | [A,D]2 [A,D]2 [A,D]2 | [A,E]2 [A,E]2 [A,E]2 | [A,D]2 [A,D]2 [A,D]2 | C2 C2 C2 | %5
 [A,D]2 [A,D]2 [A,D]2 | ^D2 D2 D2 | E2 z2 z2 | z6 | z2 E2 E2 | E2 z2 z2 | z2 D2 D2 | D2 z2 z2 | %13
 E6 | D6 | C6 | G6 | F6 | E6 | z6 | z6 | z2 z2 z2 || z6 || z2 [A,D]2 [A,D]2 | z2 [A,D]2 [A,D]2 | %25
 z2 [A,D]2 [A,D]2 | z2 [A,D]2 [A,D]2 | z2 C2 C2 | z2 C2 C2 | z2 C2 C2 | z2 C2 C2 | %31
 z2 [G,C]2 [G,C]2 | z2 [G,C]2 [G,C]2 | z2 [G,C]2 [G,C]2 | z2 [G,C]2 [G,C]2 | z2 [A,D]2 [A,D]2 | %36
 z2 [A,D]2 [A,D]2 | z2 [A,D]2 [A,D]2 | z2 [A,D]2 [A,D]2 | z2 [A,D]2 [A,D]2 | z2 [A,D]2 [A,D]2 | %41
 z2 [A,D]2 [A,D]2 | z2 [A,D]2 [A,D]2 | z2 E2 E2 | z2 E2 E2 | E2 z2 E,2 | (E,2 G,2 B, z) | %47
 z2 [G,C]2 [G,C]2 | z2 [G,C]2 [G,C]2 | z2 [A,D]2 [A,D]2 | z2 [A,D]2 [A,D]2 | D6 | G,6 | %53
 [A,D]2 z [A,D] [A,D]2 |: z2 d z c z | E6 | E6 | E6 | z2 [_A,D]2 [A,D]2 | z2 [CA]2 [CA]2 | %60
 [Ec]2 C2 C2 | z2 [CA]2 [CA]2 | [Ec]2 C2 C2 | E6 | E6 | E6 | [D^G]4 D2 | C6 | F,6 | DD D z D z | %70
 C z z4 :| E6 | A,6 | E6 | z6 |: G2 z2 (A2 | G2) z2 A2 | f6- | f2 (e2 A2 | F2) z2 (A2 | F2) z2 A2 | %81
 e6- | e2 (d2 A2 | G2) z2 (A2 | G2) z2 A2 | f6- | f2 (e2 A2) | (D2 C2 =C2) | (^D4 E2) | FF F2 E2 |1 %90
 D2 z2 (A2 :|2 D2) z4 |] %92
V:4
 C,2 A,,2 C,2 | D,2 A,,2 D,2 | E,2 A,,2 E,2 | D,2 A,,2 D,2 | C2 A,2 C2 | D2 A,2 D2 | ^D2 A,2 D2 | %7
 E2 z2 z2 | z6 | z2 A,2 A,2 | A,2 z2 z2 | z2 A,2 A,2 | A,2 z2 z2 | A,6 | A,6 | A,6 | A,6 | A,6 | %18
 A,4 z2 | A,,2 z2 z2 | G,,2 z2 z2 | E,,2 z2 z2 || z6 || D,2 [F,A,]2 [F,A,]2 | D,2 [F,A,]2 [F,A,]2 | %25
 D,2 [F,A,]2 [F,A,]2 | D,2 [F,A,]2 [F,A,]2 | E,2 [G,A,]2 [G,A,]2 | E,2 [G,A,]2 [G,A,]2 | %29
 E,2 [G,A,]2 [G,A,]2 | E,2 [G,A,]2 [G,A,]2 | A,,2 [E,A,]2 [E,A,]2 | A,,2 [E,A,]2 [E,A,]2 | %33
 A,,2 [E,A,]2 [E,A,]2 | A,,2 [E,A,]2 [E,A,]2 | D,2 [F,A,]2 [F,A,]2 | D,2 [F,A,]2 [F,A,]2 | %37
 D,2 [F,A,]2 [F,A,]2 | D,2 [F,A,]2 [F,A,]2 | F,,2 [D,A,]2 [D,A,]2 | F,,2 [D,A,]2 [D,A,]2 | %41
 F,,2 [D,A,]2 [D,A,]2 | F,,2 [D,A,]2 [D,A,]2 | G,,2 [D,B,]2 [D,B,]2 | G,,2 [D,B,]2 [D,B,]2 | %45
 G,,2 z2 E,,2 | (E,,2 G,,2 B,, z) | !>!E,2 [G,B,]2 [G,B,]2 | A,,2 [E,B,]2 [E,B,]2 | %49
 D,2 [F,A,]2 [F,A,]2 | F,,2 [D,A,]2 [D,A,]2 | !>!G,,6 | !>!A,,6 | D,2 z D, D,2 |: z6 | %55
 E,2 ^G,2 G,2 | E,2 ^G,2 F,2 | E,2 ^G,2 G,2 | E,2 ^G,2 F,2 | A,,2 E,2 E,2 | A,,2 E,2 E,2 | %61
 A,,2 E,2 E,2 | A,,2 E,2 E,2 | E,2 ^G,2 G,2 | E,2 ^G,2 F,2 | E,2 ^G,2 G,2 | E,2 ^G,2 =F,2 | F,6 | %68
 D,6 | E,, z ^G,, z E,, z | A,, z z4 :| z6 | z6 | z6 | z6 |: E,2 C2 C2 | A,,2 C2 C2 | E,2 C2 C2 | %78
 A,,2 C2 C2 | D,2 D2 D2 | A,,2 D2 D2 | D,2 D2 D2 | A,,2 D2 D2 | E,2 C2 C2 | A,,2 C2 C2 | %85
 E,2 C2 C2 | A,,2 C2 C2 | D,6 | G,,6 | A,,2 A,2 A,,2 |1 D,2 z4 :|2 D,,2 z4 |] %92

